svgs/charts/horizontal-bar-chart-03.svg

<svg width="24" height="24" viewBox="0 0 24 24" fill="none" xmlns="http://www.w3.org/2000/svg">
<path d="M13 9.5V6.1C13 5.53995 13 5.25992 12.891 5.04601C12.7951 4.85785 12.6422 4.70487 12.454 4.60899C12.2401 4.5 11.9601 4.5 11.4 4.5H3M17 14.5V11.1C17 10.5399 17 10.2599 16.891 10.046C16.7951 9.85785 16.6422 9.70487 16.454 9.60899C16.2401 9.5 15.9601 9.5 15.4 9.5H3M3 2L3 22M3 19.5H19.4C19.9601 19.5 20.2401 19.5 20.454 19.391C20.6422 19.2951 20.7951 19.1422 20.891 18.954C21 18.7401 21 18.4601 21 17.9V16.1C21 15.5399 21 15.2599 20.891 15.046C20.7951 14.8578 20.6422 14.7049 20.454 14.609C20.2401 14.5 19.9601 14.5 19.4 14.5L3 14.5L3 19.5Z" stroke="#1C1D20" stroke-width="1.5" stroke-linecap="round" stroke-linejoin="round"/>
</svg>

<svg fill="none" xmlns="http://www.w3.org/2000/svg" viewBox="0 0 24 24"><path d="M13 9.5V6.1c0-.56 0-.84-.109-1.054a1 1 0 0 0-.437-.437C12.24 4.5 11.96 4.5 11.4 4.5H3m14 10v-3.4c0-.56 0-.84-.109-1.054a1 1 0 0 0-.437-.437C16.24 9.5 15.96 9.5 15.4 9.5H3M3 2v20m0-2.5h16.4c.56 0 .84 0 1.054-.109a1 1 0 0 0 .437-.437C21 18.74 21 18.46 21 17.9v-1.8c0-.56 0-.84-.109-1.054a1 1 0 0 0-.437-.437c-.214-.109-.494-.109-1.054-.109H3v5Z" stroke="#1C1D20" stroke-width="1.5" stroke-linecap="round" stroke-linejoin="round"/></svg>
